X: 147
T: Old Wife behind the Fire
%%VWML:Wrights-3753-p74-0
F: http://www.vwml.org/record/Wrights/3753/p74
%R: march, reel
B: Daniel Wright "Wright's Compleat Collection of Celebrated Country Dances" 1740 p.74
S: http://library.efdss.org/cgi-bin/dancebooks.cgi
Z: 2014 John Chambers <jc:trillian.mit.edu>
M: C|
L: 1/8
K: G
%-------------------------
[| BG AF c2 A2 | BG cA g2 d2 | BG AF c2 A2 | Bd AB G2G2 |]
[| Bcde cdcA | B>cde fdgd | B>cde cdcA | BdAc G2 G2 |] %-------------------------
%%begintext align
%% The 1st Man sets to the 2d Wo. and turns
%% her .| the 1st Wo. does the same with 2d
%% Man :| the 1st and 2d Cu. foots it, and clap
%% hands and turns .| then foot it again and
%% clap as before, and 1st Cu cast off :|
%%endtext
%------------------------- %%sep 2 4 300
T: Bacchus Defeat
T: Longways for &c.
%R: minuet
B: Daniel Wright "Wright's Compleat Collection of Celebrated Country Dances" 1740 p.74
S: http://library.efdss.org/cgi-bin/dancebooks.cgi
Z: 2014 John Chambers <jc:trillian.mit.edu>
N: Repeats modified to match the "Each strain twice" instruction.
M: 3/4 % Actually just "3"
L: 1/8
K: F
%-------------------------
|:\
f2e2f2 | e>fg2c2 | f2edcB | A6 |\
F2A2c2 | f4e2 | d2g2f2 | e6 |\
f2edcB | A4f2 | B2c4 | F6 ::\
F2A2F2 | c2BA |
G2B2G2 | d4B2 |\
A2g2f2 | ed^c2d2 | efg2f2 | e6 |\
f2e2f2 | F2E2D2 | e2d2e2 | E2D2C2 |\
f2e2d2 | ^c2A2d2 | G2A4 | D6 :|
%-------------------------
%%center Each strain twice.
%%begintext align
%% The 1st Cu. back to back sett and cast off, and
%% Minuet thro' the 3d Cu. .| then cast off below
%% the 3d Cu. and Minuet up to the top and turn :|
%% then the 1st and 2d Men lead thro' the two We.
%% and the two We. lead quick thro' the Men .|
%% then the 1st Cu. whole figure thro' the 2d Cu.
%% and cast of quick and turn :|
%%endtext
%-------------------------
%%sep 2 4 300
